;FLAVOR:Marlin
;TIME:7455
;Filament used: 7.30936m
;Layer height: 0.2
;Generated with Cura_SteamEngine 3.4.0
M190 S60
M104 S190
M109 S190
M82 ;absolute extrusion mode
G28 ;Home
G1 Z15.0 F6000 ;Move the platform down 15mm
;Prime the extruder
G92 E0
G1 F200 E3
G92 E0
G92 E0
G1 F2400 E-5
;LAYER_COUNT:136
;LAYER:0
M107
M204 S5000
M205 X30 Y30
G0 F3600 X123.54 Y57.062 Z0.2
M204 S500
M205 X20 Y20
;TYPE:SKIRT
G1 F2400 E0
G1 F1800 X123.886 Y56.387 E0.02523
G1 X124.302 Y55.752 E0.05048
G1 X124.782 Y55.165 E0.0757
G1 X125.321 Y54.631 E0.10093
G1 X125.914 Y54.157 E0.12618
G1 X126.553 Y53.749 E0.1514
G1 X127.231 Y53.409 E0.17663
G1 X127.942 Y53.143 E0.20187
G1 X128.676 Y52.953 E0.22709
G1 X129.427 Y52.841 E0.25235
G1 X130.109 Y52.809 E0.27505
G1 X169.891 Y52.81 E1.59821
G1 X170.649 Y52.85 E1.62346
G1 X171.398 Y52.969 E1.64868
G1 X172.131 Y53.167 E1.67393
G1 X172.838 Y53.441 E1.69915
G1 X173.513 Y53.787 E1.72438
G1 X174.148 Y54.203 E1.74963
G1 X174.735 Y54.683 E1.77485
G1 X175.269 Y55.223 E1.80011
G1 X175.743 Y55.815 E1.82533
G1 X176.152 Y56.454 E1.85057
G1 X176.491 Y57.133 E1.87581
G1 X176.757 Y57.843 E1.90103
G1 X176.947 Y58.578 E1.92628
G1 X177.059 Y59.328 E1.9515
G1 X177.091 Y60.01 E1.97421
G1 X177.091 Y159.991 E5.29959
G1 X177.051 Y160.749 E5.32483
G1 X176.932 Y161.498 E5.35006
G1 X176.734 Y162.23 E5.37528
G1 X176.46 Y162.938 E5.40053
G1 X176.114 Y163.613 E5.42576
G1 X175.698 Y164.248 E5.45101
G1 X175.218 Y164.835 E5.47623
G1 X174.679 Y165.369 E5.50146
G1 X174.086 Y165.843 E5.52671
G1 X173.447 Y166.251 E5.55193
G1 X172.769 Y166.591 E5.57716
G1 X172.058 Y166.857 E5.6024
G1 X171.324 Y167.047 E5.62762
G1 X170.573 Y167.159 E5.65288
G1 X169.891 Y167.191 E5.67558
G1 X130.109 Y167.191 E6.99874
G1 X129.351 Y167.151 E7.02399
G1 X128.602 Y167.032 E7.04921
G1 X127.87 Y166.834 E7.07443
G1 X127.162 Y166.56 E7.09968
G1 X126.487 Y166.214 E7.12491
G1 X125.852 Y165.798 E7.15016
G1 X125.265 Y165.318 E7.17538
G1 X124.731 Y164.779 E7.20061
G1 X124.257 Y164.186 E7.22586
G1 X123.849 Y163.547 E7.25108
G1 X123.509 Y162.869 E7.27631
G1 X123.243 Y162.158 E7.30156
G1 X123.053 Y161.424 E7.32677
G1 X122.941 Y160.673 E7.35203
G1 X122.909 Y159.991 E7.37474
G1 X122.909 Y60.009 E10.70015
G1 X122.949 Y59.251 E10.7254
G1 X123.068 Y58.502 E10.75062
G1 X123.266 Y57.77 E10.77584
G1 X123.54 Y57.062 E10.80109
M204 S5000
M205 X30 Y30
G0 F3600 X123.939 Y57.15
M204 S500
M205 X20 Y20
G1 F1800 X124.285 Y56.499 E10.82561
G1 X124.699 Y55.889 E10.85013
G1 X125.177 Y55.328 E10.87465
G1 X125.713 Y54.821 E10.89919
G1 X126.3 Y54.376 E10.92369
G1 X126.933 Y53.996 E10.94824
G1 X127.602 Y53.688 E10.97274
G1 X128.301 Y53.454 E10.99725
G1 X129.022 Y53.296 E11.0218
G1 X130.109 Y53.209 E11.05807
G1 X169.891 Y53.21 E12.38123
G1 X170.627 Y53.25 E12.40574
G1 X171.355 Y53.369 E12.43028
G1 X172.065 Y53.567 E12.45479
G1 X172.75 Y53.84 E12.47932
G1 X173.401 Y54.186 E12.50384
G1 X174.011 Y54.6 E12.52836
G1 X174.573 Y55.078 E12.5529
G1 X175.079 Y55.614 E12.57742
G1 X175.524 Y56.202 E12.60194
G1 X175.904 Y56.834 E12.62647
G1 X176.212 Y57.503 E12.65097
G1 X176.446 Y58.203 E12.67551
G1 X176.604 Y58.923 E12.70003
G1 X176.691 Y60.01 E12.7363
G1 X176.691 Y159.991 E16.06168
G1 X176.651 Y160.727 E16.0862
G1 X176.532 Y161.455 E16.11073
G1 X176.334 Y162.165 E16.13525
G1 X176.061 Y162.85 E16.15977
G1 X175.715 Y163.501 E16.1843
G1 X175.301 Y164.111 E16.20882
G1 X174.823 Y164.672 E16.23333
G1 X174.287 Y165.179 E16.25787
G1 X173.7 Y165.624 E16.28237
G1 X173.067 Y166.004 E16.30692
G1 X172.398 Y166.312 E16.33142
G1 X171.699 Y166.546 E16.35594
G1 X170.978 Y166.704 E16.38049
G1 X169.891 Y166.791 E16.41676
G1 X130.109 Y166.791 E17.73991
G1 X129.373 Y166.751 E17.76443
G1 X128.645 Y166.632 E17.78896
G1 X127.935 Y166.434 E17.81348
G1 X127.25 Y166.161 E17.838
G1 X126.599 Y165.815 E17.86252
G1 X125.989 Y165.401 E17.88704
G1 X125.428 Y164.923 E17.91156
G1 X124.921 Y164.387 E17.9361
G1 X124.476 Y163.8 E17.9606
G1 X124.096 Y163.167 E17.98515
G1 X123.788 Y162.498 E18.00965
G1 X123.554 Y161.799 E18.03416
G1 X123.396 Y161.078 E18.05871
G1 X123.309 Y159.991 E18.09498
G1 X123.309 Y60.009 E21.4204
G1 X123.349 Y59.273 E21.44491
G1 X123.468 Y58.545 E21.46945
G1 X123.666 Y57.835 E21.49396
G1 X123.939 Y57.15 E21.51849
M204 S5000
M205 X30 Y30
G0 F3600 X124.339 Y57.241
M204 S500
M205 X20 Y20
G1 F1800 X124.683 Y56.614 E21.54228
G1 X125.096 Y56.03 E21.56607
G1 X125.571 Y55.496 E21.58984
G1 X126.103 Y55.017 E21.61365
G1 X126.685 Y54.602 E21.63742
G1 X127.31 Y54.253 E21.66123
G1 X127.97 Y53.977 E21.68503
G1 X128.656 Y53.776 E21.7088
G1 X129.361 Y53.653 E21.7326
G1 X130.109 Y53.609 E21.75752
G1 X169.891 Y53.61 E23.08068
G1 X170.605 Y53.65 E23.10446
G1 X171.311 Y53.769 E23.12828
G1 X171.998 Y53.967 E23.15206
G1 X172.659 Y54.24 E23.17584
G1 X173.286 Y54.585 E23.19965
G1 X173.87 Y54.997 E23.22342
G1 X174.404 Y55.473 E23.24721
G1 X174.883 Y56.005 E23.27102
G1 X175.298 Y56.587 E23.29479
G1 X175.647 Y57.211 E23.31857
G1 X175.923 Y57.871 E23.34237
G1 X176.124 Y58.557 E23.36614
G1 X176.247 Y59.262 E23.38995
G1 X176.291 Y60.01 E23.41487
G1 X176.291 Y159.991 E26.74025
G1 X176.251 Y160.705 E26.76403
G1 X176.132 Y161.41 E26.78781
G1 X175.934 Y162.098 E26.81163
G1 X175.661 Y162.759 E26.83541
G1 X175.317 Y163.386 E26.8592
G1 X174.904 Y163.97 E26.88299
G1 X174.429 Y164.504 E26.90676
G1 X173.897 Y164.983 E26.93057
G1 X173.315 Y165.398 E26.95434
G1 X172.69 Y165.747 E26.97815
G1 X172.03 Y166.023 E27.00195
G1 X171.344 Y166.224 E27.02572
G1 X170.639 Y166.347 E27.04953
G1 X169.891 Y166.391 E27.07445
G1 X130.109 Y166.391 E28.3976
G1 X129.395 Y166.351 E28.42139
G1 X128.69 Y166.232 E28.44517
G1 X128.002 Y166.034 E28.46898
G1 X127.341 Y165.761 E28.49276
G1 X126.714 Y165.417 E28.51655
G1 X126.13 Y165.004 E28.54034
G1 X125.596 Y164.529 E28.56411
G1 X125.117 Y163.997 E28.58792
G1 X124.702 Y163.415 E28.6117
G1 X124.353 Y162.79 E28.63551
G1 X124.077 Y162.13 E28.6593
G1 X123.876 Y161.444 E28.68308
G1 X123.753 Y160.739 E28.70688
G1 X123.709 Y159.991 E28.7318
G1 X123.709 Y60.009 E32.05721
G1 X123.749 Y59.295 E32.081
G1 X123.868 Y58.59 E32.10478
G1 X124.066 Y57.902 E32.12859
G1 X124.339 Y57.241 E32.15238
M204 S5000
M205 X30 Y30
G0 F3600 X124.738 Y57.335
M204 S500
M205 X20 Y20
G1 F1800 X125.082 Y56.734 E32.17541
G1 X125.493 Y56.176 E32.19846
G1 X125.965 Y55.67 E32.22147
G1 X126.493 Y55.221 E32.24453
G1 X127.068 Y54.836 E32.26754
G1 X127.685 Y54.521 E32.29058
G1 X128.333 Y54.278 E32.3136
G1 X129.006 Y54.111 E32.33666
G1 X129.692 Y54.023 E32.35967
G1 X130.109 Y54.009 E32.37355
G1 X169.891 Y54.01 E33.6967
G1 X170.583 Y54.05 E33.71975
G1 X171.265 Y54.169 E33.74278
G1 X171.929 Y54.367 E33.76583
G1 X172.565 Y54.639 E33.78883
G1 X173.166 Y54.983 E33.81187
G1 X173.724 Y55.394 E33.83492
G1 X174.23 Y55.866 E33.85793
G1 X174.679 Y56.394 E33.88098
G1 X175.064 Y56.97 E33.90403
G1 X175.379 Y57.586 E33.92704
G1 X175.622 Y58.234 E33.95006
G1 X175.789 Y58.907 E33.97312
G1 X175.877 Y59.594 E33.99616
G1 X175.891 Y60.01 E34.01
G1 X175.891 Y159.991 E37.33538
G1 X175.851 Y160.682 E37.3584
G1 X175.732 Y161.365 E37.38146
G1 X175.534 Y162.028 E37.40448
G1 X175.262 Y162.665 E37.42751
G1 X174.918 Y163.266 E37.45054
G1 X174.507 Y163.824 E37.47359
G1 X174.035 Y164.33 E37.49661
G1 X173.507 Y164.779 E37.51966
G1 X172.932 Y165.164 E37.54268
G1 X172.315 Y165.479 E37.56572
G1 X171.667 Y165.722 E37.58874
G1 X170.994 Y165.889 E37.6118
G1 X170.308 Y165.977 E37.6348
G1 X169.891 Y165.991 E37.64868
G1 X130.109 Y165.991 E38.97184
G1 X129.418 Y165.951 E38.99486
G1 X128.735 Y165.832 E39.01792
G1 X128.072 Y165.634 E39.04093
G1 X127.435 Y165.362 E39.06397
G1 X126.834 Y165.018 E39.087
G1 X126.276 Y164.607 E39.11005
G1 X125.77 Y164.135 E39.13306
G1 X125.321 Y163.607 E39.15612
G1 X124.936 Y163.032 E39.17913
G1 X124.621 Y162.415 E39.20217
G1 X124.378 Y161.767 E39.22519
G1 X124.211 Y161.094 E39.24825
G1 X124.123 Y160.408 E39.27126
G1 X124.109 Y159.991 E39.28514
G1 X124.109 Y60.009 E42.61055
G1 X124.149 Y59.318 E42.63357
G1 X124.268 Y58.635 E42.65663
G1 X124.466 Y57.972 E42.67964
G1 X124.738 Y57.335 E42.70268
M204 S5000
M205 X30 Y30
G0 F3600 X125.137 Y57.432
M204 S500
M205 X20 Y20
G1 F1800 X125.48 Y56.858 E42.72492
G1 X125.889 Y56.328 E42.74719
G1 X126.358 Y55.851 E42.76944
G1 X126.88 Y55.433 E42.79168
G1 X127.449 Y55.081 E42.81393
G1 X128.056 Y54.799 E42.83619
G1 X128.692 Y54.591 E42.85845
G1 X129.348 Y54.461 E42.88069
G1 X130.109 Y54.409 E42.90606
G1 X169.891 Y54.41 E44.22922
G1 X170.559 Y54.45 E44.25148
G1 X171.217 Y54.569 E44.27372
G1 X171.857 Y54.766 E44.29599
G1 X172.468 Y55.038 E44.31823
G1 X173.042 Y55.381 E44.34047
G1 X173.572 Y55.79 E44.36274
G1 X174.049 Y56.259 E44.38499
G1 X174.467 Y56.782 E44.40726
G1 X174.819 Y57.35 E44.42948
G1 X175.101 Y57.957 E44.45174
G1 X175.309 Y58.593 E44.474
G1 X175.439 Y59.249 E44.49624
G1 X175.491 Y60.01 E44.52161
G1 X175.491 Y159.991 E47.84699
G1 X175.451 Y160.659 E47.86925
G1 X175.332 Y161.317 E47.89149
G1 X175.135 Y161.957 E47.91376
G1 X174.863 Y162.568 E47.93601
G1 X174.52 Y163.142 E47.95825
G1 X174.111 Y163.672 E47.98052
G1 X173.642 Y164.149 E48.00276
G1 X173.12 Y164.567 E48.02501
G1 X172.551 Y164.919 E48.04726
G1 X171.944 Y165.201 E48.06952
G1 X171.308 Y165.409 E48.09178
G1 X170.652 Y165.539 E48.11402
G1 X169.891 Y165.591 E48.13939
G1 X130.109 Y165.591 E49.46255
G1 X129.441 Y165.551 E49.4848
G1 X128.783 Y165.432 E49.50704
G1 X128.143 Y165.235 E49.52932
G1 X127.532 Y164.963 E49.55156
G1 X126.958 Y164.62 E49.5738
G1 X126.428 Y164.211 E49.59607
G1 X125.951 Y163.742 E49.61832
G1 X125.533 Y163.22 E49.64056
G1 X125.181 Y162.651 E49.66281
G1 X124.899 Y162.044 E49.68507
G1 X124.691 Y161.408 E49.70733
G1 X124.561 Y160.752 E49.72957
G1 X124.509 Y159.991 E49.75494
G1 X124.509 Y60.009 E53.08036
G1 X124.549 Y59.341 E53.10261
G1 X124.668 Y58.683 E53.12485
G1 X124.865 Y58.043 E53.14713
G1 X125.137 Y57.432 E53.16937
M204 S5000
M205 X30 Y30
G0 F3600 X125.265 Y58.118
M204 S500
M205 X20 Y20
G1 F1800 X125.536 Y57.533 E53.19081
G1 X125.878 Y56.986 E53.21227
G1 X126.284 Y56.486 E53.23369
G1 X126.749 Y56.04 E53.25512
G1 X127.266 Y55.655 E53.27656
G1 X127.827 Y55.336 E53.29803
G1 X128.423 Y55.09 E53.31947
G1 X129.044 Y54.919 E53.3409
G1 X129.682 Y54.827 E53.36234
G1 X130.109 Y54.809 E53.37655
G1 X169.891 Y54.81 E54.6997
G1 X170.535 Y54.85 E54.72117
G1 X171.168 Y54.969 E54.74259
G1 X171.782 Y55.166 E54.76404
G1 X172.367 Y55.437 E54.78548
G1 X172.914 Y55.779 E54.80694
G1 X173.414 Y56.185 E54.82836
G1 X173.86 Y56.651 E54.84981
G1 X174.245 Y57.168 E54.87125
G1 X174.564 Y57.728 E54.89269
G1 X174.81 Y58.324 E54.91413
G1 X174.981 Y58.945 E54.93556
G1 X175.073 Y59.583 E54.95699
G1 X175.091 Y60.01 E54.97121
G1 X175.091 Y159.991 E58.29659
G1 X175.051 Y160.634 E58.31802
G1 X174.932 Y161.268 E58.33947
G1 X174.735 Y161.882 E58.36092
G1 X174.464 Y162.467 E58.38236
G1 X174.122 Y163.014 E58.40382
G1 X173.716 Y163.514 E58.42524
G1 X173.251 Y163.96 E58.44667
G1 X172.734 Y164.345 E58.46811
G1 X172.173 Y164.664 E58.48958
G1 X171.577 Y164.91 E58.51102
G1 X170.956 Y165.081 E58.53245
G1 X170.318 Y165.173 E58.55389
G1 X169.891 Y165.191 E58.5681
G1 X130.109 Y165.191 E59.89125
G1 X129.466 Y165.151 E59.91268
G1 X128.832 Y165.032 E59.93414
G1 X128.218 Y164.835 E59.95558
G1 X127.633 Y164.564 E59.97703
G1 X127.086 Y164.222 E59.99848
G1 X126.586 Y163.816 E60.01991
G1 X126.14 Y163.351 E60.04134
G1 X125.755 Y162.834 E60.06278
G1 X125.436 Y162.273 E60.08424
G1 X125.19 Y161.677 E60.10569
G1 X125.019 Y161.056 E60.12711
G1 X124.927 Y160.418 E60.14855
G1 X124.909 Y159.991 E60.16276
G1 X124.909 Y60.009 E63.48818
G1 X124.949 Y59.366 E63.50961
G1 X125.068 Y58.732 E63.53106
G1 X125.265 Y58.118 E63.55251
M204 S5000
M205 X30 Y30
G1 F2400 E58.55251
G0 F3600 X129.435 Y60.614
G0 X130.714 Y60.614
G0 X137.927 Y97.073
M204 S500
M205 X20 Y20
;TYPE:WALL-INNER
G1 F2400 E63.55251
G1 F1800 X138.215 Y97.335 E63.56546
G1 X138.52 Y97.552 E63.57791
G1 X138.85 Y97.729 E63.59036
G1 X139.202 Y97.863 E63.60289
G1 X139.569 Y97.953 E63.61546
G1 X139.942 Y97.997 E63.62795
G1 X140.32 Y97.995 E63.64052
G1 X140.693 Y97.943 E63.65305
G1 X141.058 Y97.846 E63.66561
G1 X141.408 Y97.701 E63.67821
G1 X141.734 Y97.517 E63.69066
G1 X142.032 Y97.296 E63.703
G1 X142.289 Y97.054 E63.71474
G1 X142.528 Y96.766 E63.72719
G1 X142.73 Y96.449 E63.73969
G1 X142.892 Y96.107 E63.75228
G1 X143.008 Y95.748 E63.76483
G1 X143.08 Y95.376 E63.77743
G1 X143.103 Y95 E63.78996
G1 X143.08 Y94.624 E63.80249
G1 X143.008 Y94.252 E63.81509
G1 X142.892 Y93.893 E63.82764
G1 X142.73 Y93.551 E63.84022
G1 X142.528 Y93.235 E63.8527
G1 X142.291 Y92.946 E63.86513
G1 X142.015 Y92.686 E63.87774
G1 X141.706 Y92.463 E63.89042
G1 X141.379 Y92.285 E63.9028
G1 X141.031 Y92.144 E63.91529
G1 X140.663 Y92.049 E63.92793
G1 X140.289 Y92.003 E63.94046
G1 X139.914 Y92.003 E63.95293
G1 X139.537 Y92.049 E63.96557
G1 X139.169 Y92.144 E63.97821
G1 X138.821 Y92.285 E63.99069
G1 X138.494 Y92.463 E64.00308
G1 X138.185 Y92.686 E64.01575
G1 X137.909 Y92.946 E64.02836
G1 X137.672 Y93.235 E64.04079
G1 X137.47 Y93.551 E64.05327
G1 X137.308 Y93.893 E64.06586
G1 X137.192 Y94.252 E64.0784
G1 X137.12 Y94.624 E64.09101
G1 X137.097 Y95 E64.10354
G1 X137.119 Y95.347 E64.1151
G1 X137.181 Y95.713 E64.12745
G1 X137.297 Y96.078 E64.14018
G1 X137.455 Y96.42 E64.15271
G1 X137.655 Y96.741 E64.16529
G1 X137.927 Y97.073 E64.17957
M204 S5000
M205 X30 Y30
G0 F3600 X139.819 Y97.202
G0 X157.727 Y97.073
M204 S500
M205 X20 Y20
G1 F1800 X158.015 Y97.335 E64.19252
G1 X158.32 Y97.552 E64.20497
G1 X158.65 Y97.729 E64.21742
G1 X159.002 Y97.863 E64.22995
G1 X159.368 Y97.953 E64.24249
G1 X159.74 Y97.997 E64.25495
G1 X160.118 Y97.995 E64.26752
G1 X160.492 Y97.943 E64.28008
G1 X160.858 Y97.846 E64.29267
G1 X161.208 Y97.701 E64.30527
G1 X161.534 Y97.517 E64.31772
G1 X161.832 Y97.296 E64.33006
G1 X162.089 Y97.054 E64.3418
G1 X162.328 Y96.766 E64.35425
G1 X162.53 Y96.449 E64.36675
G1 X162.692 Y96.107 E64.37934
G1 X162.808 Y95.748 E64.39189
G1 X162.88 Y95.376 E64.40449
G1 X162.903 Y95 E64.41702
G1 X162.88 Y94.624 E64.42955
G1 X162.808 Y94.252 E64.44215
G1 X162.692 Y93.893 E64.4547
G1 X162.53 Y93.551 E64.46729
G1 X162.328 Y93.235 E64.47976
G1 X162.091 Y92.946 E64.49219
G1 X161.815 Y92.686 E64.5048
G1 X161.506 Y92.463 E64.51748
G1 X161.179 Y92.285 E64.52986
G1 X160.831 Y92.144 E64.54235
G1 X160.463 Y92.049 E64.55499
G1 X160.086 Y92.003 E64.56762
G1 X159.711 Y92.003 E64.58009
G1 X159.337 Y92.049 E64.59263
G1 X158.969 Y92.144 E64.60527
G1 X158.621 Y92.285 E64.61776
G1 X158.294 Y92.463 E64.63014
G1 X157.985 Y92.686 E64.64281
G1 X157.709 Y92.946 E64.65542
G1 X157.472 Y93.235 E64.66786
G1 X157.27 Y93.551 E64.68033
G1 X157.108 Y93.893 E64.69292
G1 X156.992 Y94.252 E64.70546
G1 X156.92 Y94.624 E64.71807
G1 X156.897 Y95 E64.7306
G1 X156.919 Y95.347 E64.74216
G1 X156.981 Y95.713 E64.75451
G1 X157.097 Y96.078 E64.76725
G1 X157.255 Y96.42 E64.77978
G1 X157.455 Y96.741 E64.79235
G1 X157.727 Y97.073 E64.80663
M204 S5000
M205 X30 Y30
G0 F3600 X157.676 Y125.259
G0 X157.727 Y127.073
M204 S500
M205 X20 Y20
G1 F1800 X158.015 Y127.335 E64.81958
G1 X158.32 Y127.552 E64.83203
G1 X158.65 Y127.729 E64.84448
G1 X159.002 Y127.863 E64.85701
G1 X159.368 Y127.953 E64.86955
G1 X159.74 Y127.997 E64.88201
G1 X160.118 Y127.995 E64.89458
G1 X160.492 Y127.943 E64.90714
G1 X160.858 Y127.846 E64.91973
G1 X161.208 Y127.701 E64.93233
G1 X161.534 Y127.517 E64.94478
G1 X161.832 Y127.296 E64.95712
G1 X162.089 Y127.054 E64.96886
G1 X162.328 Y126.766 E64.98131
G1 X162.53 Y126.449 E64.99381
G1 X162.692 Y126.107 E65.0064
G1 X162.808 Y125.748 E65.01895
G1 X162.88 Y125.376 E65.03155
G1 X162.903 Y125 E65.04408
G1 X162.88 Y124.624 E65.05661
G1 X162.808 Y124.252 E65.06921
G1 X162.692 Y123.893 E65.08176
G1 X162.53 Y123.551 E65.09435
G1 X162.328 Y123.235 E65.10682
G1 X162.091 Y122.946 E65.11925
G1 X161.815 Y122.686 E65.13186
G1 X161.506 Y122.463 E65.14454
G1 X161.179 Y122.285 E65.15692
G1 X160.831 Y122.144 E65.16941
G1 X160.463 Y122.049 E65.18205
G1 X160.086 Y122.003 E65.19468
G1 X159.711 Y122.003 E65.20715
G1 X159.337 Y122.049 E65.21969
G1 X158.969 Y122.144 E65.23233
G1 X158.621 Y122.285 E65.24482
G1 X158.294 Y122.463 E65.2572
G1 X157.985 Y122.686 E65.26987
G1 X157.709 Y122.946 E65.28248
